!!!OTL: 221. Khosid
!!!Genre:	Khosid
!!!Mode:	Minor
!!!Listening/dance:	dance
!!!One_Mode:	no
**kern
*thru
*I"P1
*clefG2
*k[b-e-]
*g:
*M2/4
*>A
=1
!LO:TX:a:i:t=G-minor
4g
4g
=2
8gL
8fJ
4f
=3
8gL
8ccJ
8ccL
(16b-L
16aJJ)
=4
2b-
=5
(16b-LL
16ccJ)
8aJ
(16aLL
16b-J)
8gJ
=6
(16gLL
16aJ)
8fJ
8fL
8fJ
=7
8gL
8b-J
(16b-LL
16a)
(16a
16gJJ)
=8
2g
!!!Begin-Modulation
*g:
!LO:TX:a:i:t=G-minor
=25
(16b-LL
16ccJ)
8aJ
(16aLL
16b-J)
8gJ
=26
(16gLL
16aJ)
8fJ
8fL
8fJ
=27
8gL
8b-J
(16b-LL
16a)
(16a
16gJJ)
=28
2g
==
*-
